X:1
T:Cooley's
T:Luttrell's Pass
W:Next: Maid behind the Bar
R:reel
C:Joe Mills, Galway (1938)
D:Dubliners: 25 Years Celebration.
D:Noel Hill & Tony Linnane
D:Frankie Gavin & Paul Brock: Tribute to Joe Cooley
Z:id:hn-reel-48
M:C|
K:Edor
EBBA B2EB|~B2AB dBAG|(3FED AD BDAD|FDFA dAFD|
EBBA B2EB|~B2AB defg|afef dBAF|1 DEFD E2ED:|2 DEFD E2gf||
|:eB~B2 eBgB|eB~B2 gedB|A2FA DAFA|~A2FA defg|
eB~B2 eBgB|eB~B2 defg|afef dBAF|1 DEFD E2gf:|2 DEFD E2ED||


